!!!COM: Palestrina, Giovanni Perluigi da
!!!OPR: Missa In te Domine speravi (1599)
!!!OMD: Credo
!!!OTL: Et iterum
**kern	**kern	**kern	**kern	**kern	**kern
*Ibass	*Itenor	*Itenor	*Icalto	*Icant	*Icant
!Bassus	!Tenor 2	!Tenor 1	!Altus	!Cantus 2	!Cantus 1
*clefF4	*clefGv2	*clefGv2	*clefG2	*clefG2	*clefG2
*k[]	*k[]	*k[]	*k[]	*k[]	*k[]
*C:ion	*C:ion	*C:ion	*C:ion	*C:ion	*C:ion
*M4/2	*M4/2	*M4/2	*M4/2	*M4/2	*M4/2
=141	=141	=141	=141	=141	=141
1r	0r	1d	0r	1r	1r
1G	.	[1g	.	1b	1dd
=142	=142	=142	=142	=142	=142
1.c	0r	2g]	0r	1.cc	1.ee
.	.	2g	.	.	.
.	.	2g	.	.	.
2c	.	2c	.	2cc	2ee
=143	=143	=143	=143	=143	=143
2c	0r	2g	0r	2cc	2ee
2F	.	2a	.	2cc	2ff
2c	.	[1g	.	2cc	2ee
2B	.	.	.	2dd	2dd
=144	=144	=144	=144	=144	=144
2.c	1r	0g]	1r	2.ee	2cc
.	.	.	.	.	2g
8B	.	.	.	8dd	.
8A	.	.	.	8cc	.
[1G	2r	.	2r	1b	[1dd
.	2d	.	2g	.	.
=145	=145	=145	=145	=145	=145
0G]	1.g	0r	1.b	0r	2dd]
.	.	.	.	.	2dd
.	.	.	.	.	2dd
.	2g	.	2b	.	2g
=146	=146	=146	=146	=146	=146
0r	2g	0r	2b	2r	2dd
.	2c	.	2cc	1g	2ee
.	2g	.	2b	.	[1dd
.	2f#	.	[2a	2a	.
=147	=147	=147	=147	=147	=147
1r	2.g	0r	4a]	2.b	0dd]
.	.	.	4g	.	.
.	.	.	1g	.	.
.	8f	.	.	8a	.
.	8e	.	.	8g	.
2r	1d	.	.	1a	.
2D	.	.	2f#	.	.
=148	=148	=148	=148	=148	=148
2E	1B	2r	1g	1g	0r
2G	.	2G	.	.	.
2.F	2c	2A	1r	2r	.
.	2A	[2c	.	2cc	.
4E	.	.	.	.	.
=149	=149	=149	=149	=149	=149
2D	2F	4c]	2r	2dd	1r
.	.	4B	.	.	.
2D	2F	4B	2d	2ff	.
.	.	8A	.	.	.
.	.	8B	.	.	.
1C	1G	1c	2e	1ee	2r
.	.	.	[2g	.	2cc
=150	=150	=150	=150	=150	=150
1r	0r	2B	4g]	2dd	2dd
.	.	.	4f	.	.
.	.	2c	2e	2.cc	2ee
2r	.	1G	2d	.	2.gg
.	.	.	.	4b	.
2G	.	.	2d	4b	.
.	.	.	.	8a	4ff
.	.	.	.	8b	.
=151	=151	=151	=151	=151	=151
2A	2r	0r	1c	1cc	1.ee
1c	2c	.	.	.	.
.	2e	.	1g	1r	.
2B	[2g	.	.	.	2dd
=152	=152	=152	=152	=152	=152
1A	2g]	0r	2a	0r	1cc
.	2f	.	1cc	.	.
[1G	2e	.	.	.	1r
.	2d	.	2b	.	.
=153	=153	=153	=153	=153	=153
2G]	4e	2r	1a	0r	0r
.	4d	.	.	.	.
2F	2.d	2d	.	.	.
1E	.	2e	2.g	.	.
.	4c	.	.	.	.
.	2c	[2g	.	.	.
.	.	.	4a	.	.
=154	=154	=154	=154	=154	=154
1D	1d	2g]	2b	2r	1r
.	.	2f	2a	2dd	.
1r	1c	1e	2cc	2ee	1g
.	.	.	2c	[2gg	.
=155	=155	=155	=155	=155	=155
0r	0r	2.d	2r	2gg]	1a
.	.	.	2d	2ff	.
.	.	4d	.	.	.
.	.	1c	2e	1ee	1cc
.	.	.	2g	.	.
=156	=156	=156	=156	=156	=156
0r	0r	1d	2g	1.dd	2b
.	.	.	2f#	.	2a
.	.	1r	2g	.	2b
.	.	.	2a	2cc	[2a
=157	=157	=157	=157	=157	=157
1r	0r	2r	1e	1b	4a]
.	.	.	.	.	4g
.	.	2e	.	.	2g
2r	.	1f	1a	[1a	2.a
2F	.	.	.	.	.
.	.	.	.	.	4b
=158	=158	=158	=158	=158	=158
1A	0r	2e	1r	1a]	2.cc
.	.	2c	.	.	.
.	.	.	.	.	8b
.	.	.	.	.	8a
2G	.	1d	2r	1r	2b
2D	.	.	2f	.	2a
=159	=159	=159	=159	=159	=159
1F	2r	2c	1a	0r	0r
.	2c	2A	.	.	.
2E	1e	2B	2g	.	.
2C	.	2c	2e	.	.
=160	=160	=160	=160	=160	=160
2.D	2d	2A	1f	2r	1r
.	2A	4G	.	2dd	.
4D	.	4F	.	.	.
1C	1c	[1G	2e	1ee	2r
.	.	.	2c	.	[2g
=161	=161	=161	=161	=161	=161
0r	2B	1G]	2.d	2dd	2g]
.	2G	.	.	2b	2g
.	.	.	4d	.	.
.	2.A	1r	2.c	1cc	2e
.	.	.	.	.	2f
.	4A	.	4d	.	.
=162	=162	=162	=162	=162	=162
0r	1G	1r	4e	2b	4g
.	.	.	4f	.	4a
.	.	.	1g	2g	4b
.	.	.	.	.	4cc
.	1r	1d	.	2.a	2.dd
.	.	.	2f#	.	.
.	.	.	.	4a	4cc
=163	=163	=163	=163	=163	=163
2r	2r	2e	1g	1g	1b
1G	1B	2d	.	.	.
.	.	2e	1r	1r	2r
2F#	2A	[2d	.	.	[2dd
=164	=164	=164	=164	=164	=164
2G	2B	2d]	0r	0r	2dd]
2E	2c	1c	.	.	2ee
1D	1d	.	.	.	2ff
.	.	2B	.	.	2ff
=165	=165	=165	=165	=165	=165
1C	1e	1c	2r	2r	2.ee
.	.	.	1e	1gg	.
.	.	.	.	.	4dd
1r	1r	1r	.	.	4cc
.	.	.	.	.	4b
.	.	.	2d	2ff	[2dd
=166	=166	=166	=166	=166	=166
0r	0r	0r	2.e	2gg	4dd]
.	.	.	.	.	4cc
.	.	.	.	2ee	1cc
.	.	.	4f	.	.
.	.	.	1g	1dd	.
.	.	.	.	.	2b
=167	=167	=167	=167	=167	=167
2r	2r	2r	1c	1cc	1cc
1c	1g	1e	.	.	.
.	.	.	1r	1r	1r
2B	2g	2d	.	.	.
=168	=168	=168	=168	=168	=168
2c	2g	2e	2r	0r	0r
2A	2c	2f	1cc	.	.
1G	2.d	2.g	.	.	.
.	.	.	2b	.	.
.	4d	4g	.	.	.
=169	=169	=169	=169	=169	=169
1F	1f	4a	2cc	2r	0r
.	.	4g	.	.	.
.	.	4f	2a	1cc	.
.	.	4e	.	.	.
1G	1r	1d	2.g	.	.
.	.	.	.	2b	.
.	.	.	4g	.	.
=170	=170	=170	=170	=170	=170
2.A	0r	1.c	2e	2cc	0r
.	.	.	1f	2a	.
4B	.	.	.	.	.
2c	.	.	.	2.g	.
2C	.	2c	2e	.	.
.	.	.	.	4g	.
=171	=171	=171	=171	=171	=171
1F	2r	1c	1a	4f	1r
.	.	.	.	4g	.
.	1f	.	.	4a	.
.	.	.	.	4b	.
1C	.	1c	1g	4cc	2r
.	.	.	.	4dd	.
.	2e	.	.	2ee	[2cc
=172	=172	=172	=172	=172	=172
0r	2f	0r	2a	2cc	2cc]
.	2d	.	4g	2dd	2b
.	.	.	4f	.	.
.	1c	.	2g	1ee	2cc
.	.	.	2cc	.	2a
=173	=173	=173	=173	=173	=173
0r	1.e	2r	2b	1ee	1g
.	.	1c	2cc	.	.
.	.	.	2a	1r	2cc
.	2d	2B	2g	.	2dd
=174	=174	=174	=174	=174	=174
0r	1c	2c	2g	2r	2ee
.	.	2A	2f#	1cc	4dd
.	.	.	.	.	4cc
.	2r	1G	1g	.	2ee
.	[2g	.	.	2b	2dd
=175	=175	=175	=175	=175	=175
0r	2g]	2c	0r	2cc	2ee
.	2f#	2d	.	2a	4dd
.	.	.	.	.	4cc
.	2g	2.e	.	1g	2b
.	2e	.	.	.	[2cc
.	.	4d	.	.	.
=176	=176	=176	=176	=176	=176
0r	2A	2e	0r	2cc	2cc]
.	1a	2f	.	2dd	4b
.	.	.	.	.	4a
.	.	1e	.	1ee	2b
.	2g#	.	.	.	2b
=177	=177	=177	=177	=177	=177
1.F	2a	2r	2r	1.cc	1a
.	1f	1A	1a	.	.
.	.	.	.	.	2r
2F	2f	2c	2a	2cc	[2ff
=178	=178	=178	=178	=178	=178
1F	1f	1A	1a	1cc	2ff]
.	.	.	.	.	2ff
1D	1f	1F	1a	1dd	2ff
.	.	.	.	.	2ff
=179	=179	=179	=179	=179	=179
0F	1f	1A	0a	0cc	0ff
.	2.c	2.A	.	.	.
.	4d	4B	.	.	.
=180	=180	=180	=180	=180	=180
0C	2e	2c	2g	1cc	2ee
.	2g	2c	2cc	.	2ee
.	2g	2c	2cc	2r	2ee
.	2e	2c	2g	2ee	2ee
=181	=181	=181	=181	=181	=181
0r	1.e	2A	2a	2ee	2cc
.	.	2A	2a	2ee	2cc
.	.	[1c	1g	2cc	2.ee
.	2e	.	.	2cc	.
.	.	.	.	.	4dd
=182	=182	=182	=182	=182	=182
1r	1e	1c]	1g	1ee	1cc
2r	2g	1G	2r	2dd	[1b
[2G	[2d	.	[2g	[2dd	.
=183	=183	=183	=183	=183	=183
2G]	2d]	1r	2g]	2dd]	1b]
2G	2B	.	2g	2dd	.
2C	2c	2r	2g	2ee	2r
2D	2A	[2d	2f#	2dd	[2dd
=184	=184	=184	=184	=184	=184
1G	2G	2d]	1g	4b	2dd]
.	.	.	.	4cc	.
.	1g	2B	.	4dd	2dd
.	.	.	.	4b	.
1r	.	2A	2r	2cc	2ee
.	2f#	2d	[2d	2a	2dd
=185	=185	=185	=185	=185	=185
1G	2.g	1G	2d]	2g	4b
.	.	.	.	.	4cc
.	.	.	2d	2.gg	4dd
.	4f	.	.	.	4b
[1C	4e	[1g	2.c	.	2cc
.	4d	.	.	4ff	.
.	4c	.	.	[2ee	2cc
.	4B	.	4d	.	.
=186	=186	=186	=186	=186	=186
1C]	2c	2g]	4e	4ee]	2g
.	.	.	4f	4dd	.
.	2c	2e	4g	1cc	2.gg
.	.	.	4a	.	.
1G	2d	1d	2.g	.	.
.	.	.	.	.	4ff
.	2G	.	.	2b	2dd
.	.	.	4f	.	.
=187	=187	=187	=187	=187	=187
1C	1g	1c	4e	0cc	0ee
.	.	.	4d	.	.
.	.	.	2c	.	.
2r	2e	2r	1g	.	.
2C	2e	2c	.	.	.
=188	=188	=188	=188	=188	=188
2G	2d	2B	1r	0r	0r
2F	2f	2d	.	.	.
1A	2.e	2c	2r	.	.
.	.	2A	2c	.	.
.	8d	.	.	.	.
.	8c	.	.	.	.
=189	=189	=189	=189	=189	=189
2G	1d	2B	2g	0r	0r
2B-	.	2.d	2f	.	.
2A	2e	.	1a	.	.
.	.	4c	.	.	.
2F	2f	[2c	.	.	.
=190	=190	=190	=190	=190	=190
1G	2d	2c]	2g	0r	0r
.	2d	2B	2g	.	.
4C	1g	2c	2.e	.	.
4D	.	.	.	.	.
4E	.	4B	.	.	.
4F	.	4A	4e	.	.
=191	=191	=191	=191	=191	=191
1G	2r	1B	2d	0r	2r
.	2G	.	2g	.	2b
1r	2d	1r	2f	.	2a
.	2c	.	2a	.	2cc
=192	=192	=192	=192	=192	=192
0r	2.e	0r	2g	2r	2.b
.	.	.	2e	2g	.
.	4e	.	.	.	4g
.	2d	.	4f	2dd	1a
.	.	.	4g	.	.
.	2f	.	4a	2cc	.
.	.	.	4f	.	.
=193	=193	=193	=193	=193	=193
0r	2e	0r	1g	2.ee	2b
.	2c	.	.	.	4cc
.	.	.	.	4ee	4b
.	1d	.	1f	2dd	4a
.	.	.	.	.	4g
.	.	.	.	2ff	[2a
=194	=194	=194	=194	=194	=194
0r	1e	1r	2.g	2ee	4a]
.	.	.	.	.	4g
.	.	.	.	2cc	1g
.	.	.	4g	.	.
.	1d	2r	1a	2.dd	.
.	.	2d	.	.	2f#
.	.	.	.	4cc	.
=195	=195	=195	=195	=195	=195
1G	2r	2d	2r	1b	1g
.	2d	2d	2g	.	.
2G	2d	2B	2g	1r	1r
2C	2e	[2c	2g	.	.
=196	=196	=196	=196	=196	=196
2F	2f	2c]	2a	0r	0r
2G	2d	2B	2g	.	.
2C	2c	2A	2e	.	.
2E	2c	2G	2g	.	.
=197	=197	=197	=197	=197	=197
1D	1d	0A	2g	2r	1r
.	.	.	4f#	2dd	.
.	.	.	4e	.	.
1D	1d	.	1f#	2dd	2r
.	.	.	.	2dd	2dd
=198	=198	=198	=198	=198	=198
0r	2r	0r	1g	2.b	2dd
.	2g	.	.	.	2dd
.	.	.	.	4cc	.
.	2g	.	1r	2dd	2b
.	2c	.	.	2ee	[2cc
=199	=199	=199	=199	=199	=199
0r	2f	0r	2r	2dd	2cc]
.	2g	.	1g	2dd	2b
.	2c	.	.	2ee	2cc
.	2e	.	2g	[2gg	2b
=200	=200	=200	=200	=200	=200
0r	1d	0r	2.a	4gg]	1dd
.	.	.	.	4ff	.
.	.	.	.	4ff	.
.	.	.	4b	8ee	.
.	.	.	.	8dd	.
.	1c	.	1cc	1ee	[1g
=201	=201	=201	=201	=201	=201
0G	2g	2.d	0b	2dd	1g]
.	4G	.	.	2.dd	.
.	4A	4c	.	.	.
.	4B	4B	.	.	2r
.	4c	4A	.	4cc	.
.	2d	[2B	.	4b	[2gg
.	.	.	.	4a	.
=202	=202	=202	=202	=202	=202
0E	2.G	2B]	0g	1.b	4gg]
.	.	.	.	.	4ff
.	.	1G	.	.	4ee
.	4A	.	.	.	4dd
.	2B	.	.	.	2ee
.	2G	[2c	.	2cc	2ee
=203	=203	=203	=203	=203	=203
0D	2.A	2c]	1f	0dd	0ff
.	.	4B	.	.	.
.	4G	4A	.	.	.
.	1F	1B	1d	.	.
=204	=204	=204	=204	=204	=204
0C	1G	1c	2.e	1g	1ee
.	.	.	4f	.	.
.	1r	2.c	1g	2.ee	2.cc
.	.	4c	.	4ee	4cc
=205	=205	=205	=205	=205	=205
0r	0r	2c	2.g	2ee	2cc
.	.	2c	.	2ee	2cc
.	.	.	4g	.	.
.	.	2G	2g	2dd	2b
.	.	2c	2g	2ee	2cc
=206	=206	=206	=206	=206	=206
0r	0r	2d	2f#	1dd	2a
.	.	2G	2g	.	2b
.	.	1A	2e	2cc	2.cc
.	.	.	2f#	4b	.
.	.	.	.	4a	4dd
=207	=207	=207	=207	=207	=207
1r	1r	0G	1g	2b	1ee
.	.	.	.	1cc	.
1G	2r	.	1g	.	1dd
.	2g	.	.	2b	.
=208	=208	=208	=208	=208	=208
2A	2f	1r	0r	1cc	0r
1c	1e	.	.	.	.
.	.	1G	.	2r	.
2B	2d	.	.	2gg	.
=209	=209	=209	=209	=209	=209
1A	1c	2A	1r	2ff	1r
.	.	1c	.	1ee	.
1G	1g	.	2r	.	1gg
.	.	2B	2g	2dd	.
=210	=210	=210	=210	=210	=210
0r	0r	1A	2a	1cc	2ff
.	.	.	1cc	.	1ee
.	.	1G	.	1gg	.
.	.	.	2b	.	2dd
=211	=211	=211	=211	=211	=211
0r	0r	1r	2a	2ff	2cc
.	.	.	2a	4ee	2cc
.	.	.	.	4dd	.
.	.	2r	2g	4ee	2b
.	.	.	.	4dd	.
.	.	2d	2f#	[2dd	2a
=212	=212	=212	=212	=212	=212
0r	1r	2G	2g	2dd]	2b
.	.	1g	2e	2cc	2g
.	2r	.	1d	2.dd	1a
.	2d	2f#	.	.	.
.	.	.	.	4cc	.
=213	=213	=213	=213	=213	=213
2r	2e	1g	1r	1b	1g
2G	2g	.	.	.	.
2A	2f	1r	2r	1a	1r
[2c	[2e	.	2c	.	.
=214	=214	=214	=214	=214	=214
2c]	2e]	0r	2e	1g	2r
2B	2d	.	2g	.	2g
1A	4c	.	2f	1r	2a
.	4d	.	.	.	.
.	4e	.	[2e	.	[2cc
.	4f	.	.	.	.
=215	=215	=215	=215	=215	=215
1G	2.g	0r	2e]	0r	2cc]
.	.	.	2d	.	2b
.	4g	.	.	.	.
2F	2c	.	2f	.	2a
2E	2e	.	2g	.	2g
=216	=216	=216	=216	=216	=216
1F	4d	1r	2a	2r	2.f
.	4c	.	.	.	.
.	1c	.	2a	2cc	.
.	.	.	.	.	4g
1D	.	2r	1f	2dd	2a
.	2B	2d	.	2ff	2d
=217	=217	=217	=217	=217	=217
1C	2c	2e	2r	4ee	1g
.	.	.	.	4dd	.
.	2e	1g	2g	4cc	.
.	.	.	.	8b	.
.	.	.	.	8cc	.
1r	1d	.	1a	1dd	2r
.	.	2f	.	.	2dd
=218	=218	=218	=218	=218	=218
0r	0r	1e	2cc	1g	2ee
.	.	.	1b	.	1gg
.	.	1d	.	2.a	.
.	.	.	[2a	.	2ff
.	.	.	.	4b	.
=219	=219	=219	=219	=219	=219
0r	1r	2c	4a]	2cc	2ee
.	.	.	4g	.	.
.	.	2B	1g	2dd	2dd
.	2r	2c	.	2ee	2.cc
.	2c	2A	2f	2cc	.
.	.	.	.	.	4cc
=220	=220	=220	=220	=220	=220
1r	2d	0G	2g	0gg	2b
.	2g	.	2e	.	2.cc
2r	2.g	.	2d	.	.
.	.	.	.	.	8b
.	.	.	.	.	8a
2G	.	.	2d	.	2b
.	4f	.	.	.	.
=221	=221	=221	=221	=221	=221
2A	4e	[0c	1c	2r	[0cc
.	4d	.	.	.	.
2c	4c	.	.	2g	.
.	4B	.	.	.	.
4c	[1A	.	1e	2a	.
4B	.	.	.	.	.
4A	.	.	.	2cc	.
4G	.	.	.	.	.
=222	=222	=222	=222	=222	=222
1.F	2A]	0c]	2f	4cc	0cc]
.	.	.	.	4b	.
.	2F	.	2a	4a	.
.	.	.	.	4g	.
.	2A	.	2a	2f	.
2E	4c	.	2g	2g	.
.	4B	.	.	.	.
=223	=223	=223	=223	=223	=223
1F	4A	[0c	1f	2.a	[0cc
.	4G	.	.	.	.
.	2F	.	.	.	.
.	.	.	.	4b	.
1F	1f	.	1a	2cc	.
.	.	.	.	2dd	.
=224	=224	=224	=224	=224	=224
0C	0e	0c]	0g	0ee	0cc]
==	==	==	==	==	==
*-	*-	*-	*-	*-	*-
!!!CDT: 1525/^1526/-1594/2/2
!!!OCY: Italia
!!!AGN: Mass (Parody)
!!!AST: renaissance, vocal
!!!ASW: Motet 1532 (Lupus Hellinck)
!!!PWK: Masses, Book 9
!!!RNB: Cadence finals: G,D
!!!YOR: Le Opere Complete, v. 25, p. 131
!!!YOO: Rome, Italy: Fratelli Scalera
!!!END: 1992//
!!!EED: John Miller
!!!YEC: Copyright 2000, John Miller
!!!YEN: United States of America
!!!YEM: Rights to all derivative electronic formats reserved.
!!!YEM: Refer to licensing agreement for further details.
!!!YEM: This file must be accompanied by the licensing agreement.
!!!YEM: A copy of the licensing agreement may be found at http://www.music-cog.ohio-state.edu/HumdrumDatabases/Palestrina/license.txt
!!!EMD: converted to Humdrum by Bret Aarden
